src/icons/ce-main-colored.svg

<?xml version="1.0" encoding="UTF-8"?>
<svg width="22px" height="16px" viewBox="0 0 22 16" version="1.1" xmlns="http://www.w3.org/2000/svg" xmlns:xlink="http://www.w3.org/1999/xlink">
    <title>CE ICON BLUE</title>
    <g id="Navigation" stroke="none" stroke-width="1" fill="none" fill-rule="evenodd">
        <g id="Cloud-Cost-Setup-1" transform="translate(-19.000000, -322.000000)">
            <g id="SIDE-NAV-COLLAPSE" transform="translate(0.000000, 60.000000)">
                <g id="EFFICIENCY" transform="translate(0.000000, 240.000000)">
                    <g id="ON-STATE">
                        <g id="CE-ICON-BLUE" transform="translate(19.000000, 22.000000)">
                            <path d="M16.5,4.45238095 C16.368,4.45238095 16.236,4.48577381 16.104,4.49690476 C15.213,1.88113095 12.782,0 9.9,0 C6.259,0 3.3,2.99422619 3.3,6.67857143 C3.3,6.73422619 3.311,6.77875 3.311,6.83440476 C1.408,7.32416667 0,9.04946429 0,11.1309524 C0,13.5908929 1.969,15.5833333 4.4,15.5833333 L16.5,15.5833333 C19.536,15.5833333 22,13.09 22,10.0178571 C22,6.94571429 19.536,4.45238095 16.5,4.45238095 Z" id="Path" fill="#25A6F7"></path>
                            <path d="M14.0914583,9.288125 C14.0227083,9.081875 13.9195833,8.889375 13.7820833,8.710625 C13.6445833,8.531875 13.4727083,8.37375 13.2664583,8.229375 C13.0602083,8.091875 12.8195833,7.981875 12.5445833,7.899375 C12.4345833,7.871875 12.2489583,7.82375 11.9945833,7.761875 C11.7539583,7.7 11.4927083,7.638125 11.2245833,7.569375 C10.9564583,7.500625 10.7158333,7.43875 10.4958333,7.38375 C10.2827083,7.32875 10.1589583,7.30125 10.1245833,7.294375 C9.82895833,7.211875 9.58833333,7.095 9.40270833,6.936875 C9.21708333,6.77875 9.12770833,6.55875 9.12770833,6.28375 C9.12770833,6.084375 9.17583333,5.919375 9.27208333,5.78875 C9.36833333,5.658125 9.49208333,5.555 9.64333333,5.4725 C9.79458333,5.396875 9.95958333,5.341875 10.1383333,5.3075 C10.3170833,5.273125 10.4958333,5.2525 10.6677083,5.2525 C11.1764583,5.2525 11.5958333,5.355625 11.9258333,5.56875 C12.2558333,5.775 12.4414583,6.139375 12.4827083,6.64125 L13.9539583,6.64125 C13.9539583,6.22875 13.8645833,5.864375 13.6927083,5.555 C13.5208333,5.245625 13.2870833,4.9775 12.9914583,4.764375 C12.6958333,4.55125 12.3520833,4.393125 11.9670833,4.283125 C11.8020833,4.241875 11.6302083,4.214375 11.4514583,4.186875 L11.4514583,3.4375 C11.4514583,3.059375 11.1420833,2.75 10.7639583,2.75 C10.3858333,2.75 10.0764583,3.059375 10.0764583,3.4375 L10.0764583,4.18 C9.91833333,4.200625 9.76020833,4.228125 9.60895833,4.269375 C9.23770833,4.35875 8.90770833,4.503125 8.61895833,4.68875 C8.33020833,4.88125 8.09645833,5.121875 7.91770833,5.410625 C7.73895833,5.70625 7.64958333,6.05 7.64958333,6.441875 C7.64958333,6.648125 7.67708333,6.8475 7.73895833,7.046875 C7.80083333,7.24625 7.89708333,7.431875 8.04145833,7.610625 C8.18583333,7.789375 8.37145833,7.9475 8.61208333,8.091875 C8.85270833,8.23625 9.15520833,8.353125 9.51270833,8.4425 C10.0970833,8.586875 10.5852083,8.70375 10.9839583,8.8 C11.3827083,8.889375 11.7264583,8.9925 12.0289583,9.08875 C12.2008333,9.150625 12.3582708,9.246875 12.5026458,9.39125 C12.6477083,9.535625 12.7233333,9.7563125 12.7233333,10.058125 C12.7233333,10.2025 12.6889583,10.346875 12.6270833,10.49125 C12.5652083,10.635625 12.4620833,10.7600625 12.3177083,10.869375 C12.1733333,10.979375 11.9945833,11.06875 11.7608333,11.1375 C11.5339583,11.20625 11.2589583,11.240625 10.9358333,11.240625 C10.6402083,11.240625 10.3583333,11.20625 10.1039583,11.144375 C9.84958333,11.0825 9.62270833,10.979375 9.42333333,10.8494375 C9.22395833,10.71125 9.07270833,10.539375 8.96270833,10.32625 C8.85270833,10.113125 8.79770833,9.85875 8.79770833,9.5569375 L7.33333333,9.5569375 C7.34020833,10.0450625 7.43645833,10.46375 7.62895833,10.82125 C7.81458333,11.17875 8.06895833,11.4675 8.38520833,11.694375 C8.70145833,11.92125 9.06583333,12.093125 9.49208333,12.203125 C9.67770833,12.2519375 9.87708333,12.285625 10.0764583,12.313125 L10.0764583,13.0625 C10.0764583,13.440625 10.3858333,13.75 10.7639583,13.75 C11.1420833,13.75 11.4514583,13.440625 11.4514583,13.0625 L11.4514583,12.340625 C11.6577083,12.32 11.8708333,12.285625 12.0702083,12.2375 C12.4689583,12.148125 12.8264583,12.00375 13.1427083,11.804375 C13.4589583,11.605 13.7133333,11.350625 13.9051458,11.04125 C14.0983333,10.7325625 14.1945833,10.35375 14.1945833,9.91375 C14.1945833,9.7013125 14.1602083,9.494375 14.0914583,9.288125" id="Fill-1" fill="#FFFFFF"></path>
                        </g>
                    </g>
                </g>
            </g>
        </g>
    </g>
</svg>

<svg height="16" viewBox="0 0 22 16" width="22" xmlns="http://www.w3.org/2000/svg"><g fill="none" fill-rule="evenodd"><path d="m16.5 4.45238095c-.132 0-.264.03339286-.396.04452381-.891-2.61577381-3.322-4.49690476-6.204-4.49690476-3.641 0-6.6 2.99422619-6.6 6.67857143 0 .05565476.011.10017857.011.15583333-1.903.48976191-3.311 2.21505953-3.311 4.29654764 0 2.4599405 1.969 4.4523809 4.4 4.4523809h12.1c3.036 0 5.5-2.4933333 5.5-5.5654762 0-3.07214281-2.464-5.56547615-5.5-5.56547615z" fill="#25a6f7"/><path d="m14.0914583 9.288125c-.06875-.20625-.171875-.39875-.309375-.5775s-.309375-.336875-.515625-.48125c-.20625-.1375-.446875-.2475-.721875-.33-.11-.0275-.295625-.075625-.55-.1375-.240625-.061875-.501875-.12375-.77-.1925s-.50875-.130625-.72875-.185625c-.213125-.055-.336875-.0825-.37125-.089375-.29562497-.0825-.53624997-.199375-.72187497-.3575s-.275-.378125-.275-.653125c0-.199375.048125-.364375.144375-.495s.22-.23375.37125-.31625c.15125-.075625.31625-.130625.49499997-.165.17875-.034375.3575-.055.529375-.055.50875 0 .928125.103125 1.258125.31625.33.20625.515625.570625.556875 1.0725h1.47125c0-.4125-.089375-.776875-.26125-1.08625s-.405625-.5775-.70125-.790625-.639375-.37125-1.024375-.48125c-.165-.04125-.336875-.06875-.515625-.09625v-.749375c0-.378125-.309375-.6875-.6875-.6875s-.6875.309375-.6875.6875v.7425c-.15812497.020625-.31624997.048125-.46749997.089375-.37125.089375-.70125.23375-.99.419375-.28875.1925-.5225.433125-.70125.721875-.17875.295625-.268125.639375-.268125 1.03125 0 .20625.0275.405625.089375.605s.158125.385.3025.56375.33.336875.570625.48125.543125.26125.900625.350625c.58437497.144375 1.07249997.26125 1.47124997.3575.39875.089375.7425.1925 1.045.28875.171875.061875.3293125.158125.4736875.3025.1450625.144375.2206875.3650625.2206875.666875 0 .144375-.034375.28875-.09625.433125s-.165.2688125-.309375.378125c-.144375.11-.323125.199375-.556875.268125-.226875.06875-.501875.103125-.825.103125-.295625 0-.5775-.034375-.831875-.09625-.25437497-.061875-.48124997-.165-.68062497-.2949375-.199375-.1381875-.350625-.3100625-.460625-.5231875s-.165-.4675-.165-.7693125h-1.464375c.006875.488125.103125.9068125.295625 1.2643125.185625.3575.44.64625.75625.873125s.680625.39875 1.106875.50875c.185625.0488125.385.0825.58437497.11v.749375c0 .378125.309375.6875.6875.6875s.6875-.309375.6875-.6875v-.721875c.20625-.020625.419375-.055.61875-.103125.39875-.089375.75625-.23375 1.0725-.433125s.570625-.45375.7624375-.763125c.1931875-.3086875.2894375-.6875.2894375-1.1275 0-.2124375-.034375-.419375-.103125-.625625" fill="#fff"/></g></svg>
